src/main/webapp/data/png.svg

<svg height="450" viewBox="0 0 768 576" width="600" xmlns="http://www.w3.org/2000/svg" xmlns:xlink="http://www.w3.org/1999/xlink"><path d="m0 0h768v576h-768z"/><path d="m0 0h768v576z" fill="#ce1126"/><path d="m475.48467 167.35351c-5.67222 7.32645-19.095-7.36966-35.175-7.70533s-27.47067 15.40966-32.16 20.77033-19.76433 33.49967-19.42967 36.51467c.33467 3.015 9.38067-8.37467 12.73034-10.38467.33466 4.02-3.68534 8.71034-2.68034 10.05 1.005 1.33967 11.72433-8.04 15.40967-8.37466 1.005 2.68033-2.01 5.35966-1.005 9.37966 1.34067 1.33967 7.37067-6.70033 11.39067-8.37466.66933 3.015-3.68534 8.71033-1.34067 12.39466 1.67533.33467 11.72433-11.38966 15.075-12.73033s-1.67534 11.055 0 12.06c3.015-2.01 12.39567-12.73034 15.41067-14.07 3.015-1.33967-.33467 13.73533 1.005 13.73533 3.68433-2.68033 13.065-15.40966 14.07-17.41966s-1.005 19.42966 9.37966 30.82033c10.38467 11.39067 26.13101 24.45467 27.80534 24.45467 2.01-3.68534-.66933-11.38967 1.005-11.055 4.68933 5.025 13.39966 12.39466 15.40966 12.39466s-1.34067-8.04 1.33967-8.04c5.36067 5.025 20.77033 24.79034 50.92033 33.83534-2.01-5.69534-6.36567-10.72034-6.70033-13.39967 2.01.33467 9.046 3.68534 10.38567 3.34967 1.33966-.33567-14.74034-20.1-13.73534-22.78034 3.68534-.33466 5.36067 2.01 6.70034.33467-1.67534-2.67933-15.74534-18.42467-15.74534-22.11 0-3.68534 4.35567.67033 5.69534 0 1.33966-.67034-5.35967-14.74034-4.02-16.41467 1.33966-1.67433 16.07899 9.045 19.76433 9.045 3.68533 0 1.005-13.065 2.68033-13.73533 1.67534-.67034 14.07101 7.035 16.75034 7.035s2.34466-5.69534 3.34966-5.025c1.005.67033 30.15 29.81533 20.1 63.98533-10.05 24.45567-30.14899 37.52067-59.62966 26.80034 1.67433 2.68033 17.41966 15.74533 34.50466 11.055 17.085-4.69034 37.85433-18.09 35.50967-51.58967-2.34467-33.49966-13.40067-38.19-15.075-43.215s2.68134 1.33967 6.36567 2.68034-.67034-7.03601-1.67534-10.72134c-1.005-3.68534 11.055 7.70533 14.07 8.71033s-7.035-27.46966-10.05-29.47966 3.015.66933 5.025 1.33966c2.01.67034-18.42567-31.155-22.78033-31.155-4.35467 0 3.68433-1.67533 6.03-1.67533s-23.44866-20.77034-27.80433-20.77034 9.37866-5.36067 10.71933-5.69533c2.34567.33466-29.81433-17.085-58.62467.33466-1.67533-1.33866 13.56851-11.89116 14.07-16.41366.16784-1.17283-5.02399-3.68533-5.35966-5.025-.33567-1.33966 8.04-5.35965 8.37466-8.37465-2.01-2.68033-5.69533-1.67534-7.70533-2.34466-.5015-2.512504 7.036-8.710339 6.36567-11.389669-.5025-1.5075-6.03101-2.01-7.37067-1.005-1.33967 1.005 3.5185-7.035 2.68033-9.379665-.66933-1.005-3.34966-.334665-6.03.334665-1.67533-.334665 8.71034-14.740335 6.70034-16.750335s-30.15101 14.73933-40.53567 33.499665c-10.38467 18.760319-2.34366 33.835319-3.68433 40.199989-1.34067 6.36466-3.01601 12.73033-7.37067 12.73033-4.35467 0-14.40366-6.70033-17.75433-10.05-3.35067-3.34966-4.02-5.69533-8.71034-7.035-4.69033-1.33966-15.40966 2.68034-19.42966 3.015-4.02.33467-19.76534-3.015-20.77034-2.01s15.40967 7.035 19.095 9.045c3.68534 2.01 4.02101 4.69034 6.70034 6.36467s27.80433 9.045 19.76433 19.42966zm98.15533 47.235c8.04 8.04 62.31 44.22 62.31 88.44s-39.53067 42.88134-50.92033 41.54067c12.73033 10.71933 60.97033 8.70933 60.97033-41.54067 0-44.22-62.31-88.44-70.35-92.46s-10.05-4.02-2.01 4.02z" fill="#fcd116"/><g fill="#fff"><path d="m220.254 418.599 11.455-36.851 11.455 37.252-30.164-22.832h37.418z"/><path id="a" d="m192.418 178.496-22.909 73.702 60.327-44.862h-74.836l60.327 45.664z"/><use x="-88" xlink:href="#a" y="112.504"/><use x="87.582" xlink:href="#a" y="104.504"/><use xlink:href="#a" y="264.504"/></g></svg>

<?xml version="1.0" encoding="UTF-8"?>
<svg xmlns="http://www.w3.org/2000/svg" xmlns:xlink="http://www.w3.org/1999/xlink" width="600" height="450" viewBox="0 0 768 576">
<title>Flag of Papua New Guinea</title>
<rect width="768" height="576" fill="#000"/>
<path d="M0,0H768V576z" fill="#ce1126"/>
<path d="M475.48467,167.35351C469.81245,174.67996 456.38967,159.98385 440.30967,159.64818C424.22967,159.31251 412.839,175.05784 408.14967,180.41851C403.46034,185.77918 388.38534,213.91818 388.72,216.93318C389.05467,219.94818 398.10067,208.55851 401.45034,206.54851C401.785,210.56851 397.765,215.25885 398.77,216.59851C399.775,217.93818 410.49433,208.55851 414.17967,208.22385C415.18467,210.90418 412.16967,213.58351 413.17467,217.60351C414.51534,218.94318 420.54534,210.90318 424.56534,209.22885C425.23467,212.24385 420.88,217.93918 423.22467,221.62351C424.9,221.95818 434.949,210.23385 438.29967,208.89318C441.65034,207.55251 436.62433,219.94818 438.29967,220.95318C441.31467,218.94318 450.69534,208.22284 453.71034,206.88318C456.72534,205.54351 453.37567,220.61851 454.71534,220.61851C458.39967,217.93818 467.78034,205.20885 468.78534,203.19885C469.79034,201.18885 467.78034,222.62851 478.165,234.01918C488.54967,245.40985 504.29601,258.47385 505.97034,258.47385C507.98034,254.78851 505.30101,247.08418 506.97534,247.41885C511.66467,252.44385 520.375,259.81351 522.385,259.81351C524.395,259.81351 521.04433,251.77351 523.72467,251.77351C529.08534,256.79851 544.495,276.56385 574.645,285.60885C572.635,279.91351 568.27933,274.88851 567.94467,272.20918C569.95467,272.54385 576.99067,275.89452 578.33034,275.55885C579.67,275.22318 563.59,255.45885 564.595,252.77851C568.28034,252.44385 569.95567,254.78851 571.29534,253.11318C569.62,250.43385 555.55,234.68851 555.55,231.00318C555.55,227.31784 559.90567,231.67351 561.24534,231.00318C562.585,230.33284 555.88567,216.26284 557.22534,214.58851C558.565,212.91418 573.30433,223.63351 576.98967,223.63351C580.675,223.63351 577.99467,210.56851 579.67,209.89818C581.34534,209.22784 593.74101,216.93318 596.42034,216.93318C599.09967,216.93318 598.765,211.23784 599.77,211.90818C600.775,212.57851 629.92,241.72351 619.87,275.89351C609.82,300.34918 589.72101,313.41418 560.24034,302.69385C561.91467,305.37418 577.66,318.43918 594.745,313.74885C611.83,309.05851 632.59933,295.65885 630.25467,262.15918C627.91,228.65952 616.854,223.96918 615.17967,218.94418C613.50534,213.91918 617.86101,220.28385 621.54534,221.62452C625.22967,222.96519 620.875,214.58851 619.87,210.90318C618.865,207.21784 630.925,218.60851 633.94,219.61351C636.955,220.61851 626.905,192.14385 623.89,190.13385C620.875,188.12385 626.905,190.80318 628.915,191.47351C630.925,192.14385 610.48933,160.31851 606.13467,160.31851C601.78,160.31851 609.819,158.64318 612.16467,158.64318C614.51034,158.64318 588.71601,137.87284 584.36034,137.87284C580.00467,137.87284 593.739,132.51217 595.07967,132.17751C597.42534,132.51217 565.26534,115.09251 536.455,132.51217C534.77967,131.17351 550.02351,120.62101 550.525,116.09851C550.69284,114.92568 545.50101,112.41318 545.16534,111.07351C544.82967,109.73385 553.20534,105.71386 553.54,102.69886C551.53,100.01853 547.84467,101.02352 545.83467,100.3542C545.33317,97.841696 552.87067,91.643861 552.20034,88.964531C551.69784,87.457031 546.16933,86.954531 544.82967,87.959531C543.49,88.964531 548.34817,80.924531 547.51,78.579866C546.84067,77.574866 544.16034,78.245201 541.48,78.914531C539.80467,78.579866 550.19034,64.174196 548.18034,62.164196C546.17034,60.154196 518.02933,76.903526 507.64467,95.663861C497.26,114.42418 505.30101,129.49918 503.96034,135.86385C502.61967,142.22851 500.94433,148.59418 496.58967,148.59418C492.235,148.59418 482.18601,141.89385 478.83534,138.54418C475.48467,135.19452 474.81534,132.84885 470.125,131.50918C465.43467,130.16952 454.71534,134.18952 450.69534,134.52418C446.67534,134.85885 430.93,131.50918 429.925,132.51418C428.92,133.51918 445.33467,139.54918 449.02,141.55918C452.70534,143.56918 453.04101,146.24952 455.72034,147.92385C458.39967,149.59818 483.52467,156.96885 475.48467,167.35351zM573.64,214.58851C581.68,222.62851 635.95,258.80851 635.95,303.02851C635.95,347.24851 596.41933,345.90985 585.02967,344.56918C597.76,355.28851 646,353.27851 646,303.02851C646,258.80851 583.69,214.58851 575.65,210.56851C567.61,206.54851 565.6,206.54851 573.64,214.58851z" fill="#fcd116"/>
<g fill="#fff">
<path d="M220.254,418.599,231.709,381.748,243.164,419,213,396.168h37.418z"/>
<path id="sl" d="m192.418,178.496 -22.909,73.702 60.327,-44.862h-74.836l60.327,45.664z"/>
<use xlink:href="#sl" x="-88" y="112.504"/>
<use xlink:href="#sl" x="87.582" y="104.504"/>
<use xlink:href="#sl" y="264.504"/>
</g>
</svg>
